X: 26959
T: Miss Cathy Chilcott's
R: reel
M: 4/4
K: Dmixolydian
D3F ABcA|d3c BAcB|AGFG cGAG|AGFD CDDC|
D3F ABcA|d3c BAcB|AGFG cGAG|1 AGFD CDDC:|2 AGFD CDD2||
|:a3a add2|gfef gdd2|e2dB c2BG|AdAd gaag|
a3a add2|gfef gdd2|e2dB c2BG|1 AdAd gaag:|2 AdcF GFEF||

